X:94
T:94 The Emperor of Alexander's Wa;tz
C:Welch MS
I:abc2nwc
M:3/8
L:1/16
K:G
Bc|d2dBgd|B4GB|c2cBcd|e2d2 Bc|d2dBgd|B4GB|c2cAFA|G4:|
g2|gf .f2.f2|ag .g2.g2|gf .f2.f2|g4g2|fafafa|gagbgb|c'afdef|g4:|


